icons/op-gitlab-pipeline-status-manual-16.svg

<svg width="16" height="16" viewBox="0 0 16 16" fill="none" xmlns="http://www.w3.org/2000/svg">

<path fill-rule="evenodd" clip-rule="evenodd" d="M2.34315 2.34315C0.842855 3.84344 0 5.87827 0 8C0 10.1217 0.842855 12.1566 2.34315 13.6569C3.84344 15.1571 5.87827 16 8 16C10.1217 16 12.1566 15.1571 13.6569 13.6569C15.1571 12.1566 16 10.1217 16 8C16 5.87827 15.1571 3.84344 13.6569 2.34315C12.1566 0.842855 10.1217 0 8 0C5.87827 0 3.84344 0.842855 2.34315 2.34315ZM14.3352 5.37589C14.6798 6.20783 14.8571 7.09951 14.8571 8C14.8571 9.81863 14.1347 11.5628 12.8487 12.8487C11.5628 14.1347 9.81863 14.8571 8 14.8571C6.18137 14.8571 4.43723 14.1347 3.15127 12.8487C1.8653 11.5628 1.14286 9.81863 1.14286 8C1.14286 7.09951 1.32022 6.20783 1.66483 5.37589C2.00943 4.54394 2.51452 3.78801 3.15127 3.15127C3.78801 2.51452 4.54394 2.00943 5.37589 1.66483C6.20783 1.32022 7.09951 1.14286 8 1.14286C8.90049 1.14286 9.79217 1.32022 10.6241 1.66483C11.4561 2.00943 12.212 2.51452 12.8487 3.15127C13.4855 3.78801 13.9906 4.54394 14.3352 5.37589Z" fill="black"/>
<path d="M12 8.72V7.28L11.1006 7.13143C11.0503 6.93143 10.9497 6.73257 10.8 6.43429L11.3497 5.68914L10.3006 4.64571L9.54971 5.192C9.33186 5.06025 9.09635 4.96019 8.85029 4.89486L8.74971 4H7.30057L7.14971 4.89486C6.89943 4.944 6.69943 5.04343 6.45029 5.192L5.69943 4.64571L4.65029 5.68914L5.14971 6.43429C5 6.68343 4.94971 6.88229 4.85029 7.13143L4 7.22971V8.67086L4.89943 8.81943C4.94971 9.06857 5.05029 9.26743 5.2 9.51657L4.69943 10.2606L5.75086 11.304L6.49943 10.808C6.69943 10.9063 6.94971 11.0057 7.2 11.1051L7.34971 12H8.85029L9 11.1051C9.25029 11.056 9.45029 10.9566 9.70057 10.808L10.4503 11.3543L11.4994 10.3109L10.9509 9.56571C11.0994 9.31657 11.2 9.06857 11.2503 8.86857L12 8.72ZM8 9.46629C7.80253 9.47061 7.60622 9.43506 7.4228 9.36176C7.23939 9.28846 7.07265 9.17891 6.93256 9.03967C6.79247 8.90043 6.6819 8.73437 6.60748 8.55141C6.53306 8.36844 6.49631 8.17235 6.49943 7.97486C6.49943 7.13029 7.15086 6.48457 8 6.48457C8.85029 6.48457 9.50057 7.13029 9.50057 7.97486C9.50057 8.82057 8.84914 9.46629 8 9.46629Z" fill="black"/>

</svg>

<svg xmlns="http://www.w3.org/2000/svg" width="16" height="16" viewBox="0 0 16 16"><path d="M2.343 2.343a8 8 0 1 1 11.314 11.315A8 8 0 0 1 2.343 2.343Zm11.992 3.033a6.846 6.846 0 0 0-3.711-3.711 6.851 6.851 0 0 0-5.248 0 6.862 6.862 0 0 0-3.711 3.711 6.857 6.857 0 1 0 12.67 0Z"/><path d="M12 8.72V7.28l-.899-.149c-.051-.2-.151-.398-.301-.697l.55-.745-1.049-1.043-.751.546a2.668 2.668 0 0 0-.7-.297L8.75 4H7.301l-.151.895c-.251.049-.451.148-.7.297l-.751-.546L4.65 5.689l.5.745c-.15.249-.2.448-.3.697L4 7.23v1.441l.899.148c.051.25.151.448.301.698l-.501.744 1.052 1.043.748-.496c.2.098.451.198.701.297l.15.895h1.5l.15-.895c.25-.049.45-.148.701-.297l.749.546 1.049-1.043-.548-.745c.148-.249.249-.497.299-.697L12 8.72Zm-4 .746a1.46 1.46 0 0 1-1.067-.426 1.476 1.476 0 0 1-.434-1.065c0-.845.652-1.49 1.501-1.49.85 0 1.501.645 1.501 1.49 0 .846-.652 1.491-1.501 1.491Z"/></svg>
